X: 3
T: Blue Jig, The (Joel Mabus; J-61)
%C: J-61
Z: Transcribed to abc by Mary Lou Knack
R: jig
M: 6/8
K: Cm
"C7"c3 edc| edc c'3| c'bg _gfe| "F7"f^fg f=fe| "C7"c3 edc| edc c'3|! c'bg "F7"ecB| "G7"_GFE "C"C3:| |:"F7"=Acd edc| =Acd edc| "C7"=eg=a bag|! =eg=a bag| "F7"=Acd edc| =Acd edc| "C7"c'bg "F7"ecB| "G7"_GFE "C"C3 :|
$Smc'llLMc'rbin
$Smc'llRMc'rbin
|:cef ^f=fe |cef ^f=fe |gbc' ^c'=c'b |gbc' ^c'=c'b |
cef ^f=fe |cef ^f=fe | c'bg ecB| _GFE C3 :|

